public/img/illustrations/urine-sticker.svg

<svg width="85" height="85" viewBox="0 0 85 85" fill="none" xmlns="http://www.w3.org/2000/svg">
<rect x="4.49121" y="4.49127" width="76.0175" height="76.0175" rx="38.0088" fill="#FCFCF0" stroke="#F68D2E" stroke-width="6"/>
<rect x="6.46484" y="6.4649" width="72.0702" height="72.0702" rx="36.0351" fill="#FCFCF0" stroke="#2D2A26"/>
<g clip-path="url(#clip0_5507_1365)">
<path d="M48.542 19.8634C45.878 19.1545 45.0088 17.8289 45.5694 15.7118L46.3773 12.6849L47.9343 13.1031L47.1264 16.13C46.8908 16.9806 46.8743 18.0203 48.8906 18.5543C50.9068 19.0883 51.3991 18.1763 51.6229 17.3351L52.4308 14.3082L53.9854 14.7264L53.1893 17.7368C52.6193 19.8634 51.1966 20.5722 48.542 19.8634Z" fill="#2D2A26"/>
<path d="M59.1087 23.2093L58.9603 25.402L57.4293 24.2915L57.5824 22.3374L55.4625 20.818L54.4874 22.1838L53.1777 21.2386L56.831 16.13L60.8353 19.008C61.9918 19.8421 62.2485 21.1488 61.443 22.2877C60.8447 23.1218 59.985 23.4314 59.1087 23.2093ZM56.2516 19.7169L58.5788 21.3922C58.9721 21.6734 59.5845 22.1129 60.131 21.3473C60.6775 20.5817 60.0745 20.1351 59.6811 19.8516L57.3539 18.1763L56.2516 19.7169Z" fill="#2D2A26"/>
<path d="M60.64 27.6018L59.5801 26.3849L64.291 22.2475L65.3509 23.4644L60.64 27.6018Z" fill="#2D2A26"/>
<path d="M70.8052 32.6845L65.2016 35.5082L64.217 33.5423L66.4971 27.5972L62.2973 29.7238L61.5742 28.2801L67.1731 25.4446L68.153 27.4034L65.8705 33.3603L70.075 31.2337L70.8052 32.6845Z" fill="#2D2A26"/>
<path d="M70.4893 37.519L69.2268 37.6631L69.7921 42.6583L68.6356 42.7882L68.0703 37.7931L66.8078 37.9372L67.3731 42.9324L66.1012 43.0789L65.3545 36.4769L71.5776 35.7681L72.3266 42.3677L71.0547 42.5142L70.4893 37.519Z" fill="#2D2A26"/>
<path d="M67.8141 49.5201C68.4666 49.7422 68.6197 50.2668 68.3111 51.186C68.0026 52.1051 67.5597 52.4289 66.8979 52.2067C66.236 51.9846 66.0852 51.4459 66.3938 50.5362C66.7024 49.6265 67.1546 49.2957 67.8141 49.5201Z" fill="#2D2A26"/>
<path d="M58.8043 59.0734C60.7734 57.1358 62.3492 57.0578 63.8779 58.6221L66.0637 60.8597L64.9143 61.9892L62.7284 59.7515C62.1137 59.1254 61.2398 58.5701 59.7511 60.0398C58.2625 61.5095 58.7972 62.4027 59.4049 63.0194L61.5907 65.2571L60.4413 66.3889L58.2554 64.1513C56.7221 62.5941 56.8422 61.0015 58.8043 59.0734Z" fill="#2D2A26"/>
<path d="M50.5629 66.5023L48.7539 65.2642L50.4875 64.4939L52.0892 65.6186L54.4658 64.5671L53.7875 63.0312L55.262 62.3767L57.7941 68.1256L53.2928 70.1223C51.9903 70.7012 50.7325 70.2664 50.1672 68.9857C49.9642 68.5827 49.8932 68.1257 49.9643 67.6798C50.0353 67.2339 50.2448 66.8218 50.5629 66.5023ZM55.0123 65.8076L52.3907 66.9678C51.9502 67.1639 51.2624 67.4688 51.6417 68.3312C52.0209 69.1937 52.7134 68.8983 53.1539 68.7022L55.7802 67.5396L55.0123 65.8076Z" fill="#2D2A26"/>
<path d="M46.0127 65.5879L47.5955 65.2949L48.7379 71.4763L47.1551 71.7693L46.0127 65.5879Z" fill="#2D2A26"/>
<path d="M36.4873 71.7858L36.9066 65.5146L39.0948 65.6611L43.0401 70.6492L43.3534 65.94L44.9622 66.0487L44.5429 72.3198L42.3547 72.178L38.3999 67.1805L38.0866 71.8921L36.4873 71.7858Z" fill="#2D2A26"/>
<path d="M32.4921 69.0566L33.0079 67.8917L28.4313 65.8431L28.9024 64.7774L33.479 66.826L33.9972 65.6611L29.4206 63.6125L29.9412 62.431L35.9946 65.1484L33.4413 70.8879L27.3926 68.18L27.9131 66.9985L32.4921 69.0566Z" fill="#2D2A26"/>
<path d="M23.5561 60.6424C23.0356 61.0937 22.5056 60.9566 21.8743 60.2218C21.2431 59.4869 21.1889 58.9435 21.7118 58.4921C22.2347 58.0408 22.7765 58.1755 23.4007 58.9057C24.0248 59.6358 24.0861 60.184 23.5561 60.6424Z" fill="#2D2A26"/>
<path d="M19.9236 48.0032C20.5831 50.6874 19.8482 52.0886 17.7283 52.6132L14.6945 53.3622L14.3106 51.7933L17.342 51.0442C18.1947 50.8339 19.1109 50.359 18.6116 48.3269C18.1122 46.2948 17.0735 46.3019 16.2302 46.5098L13.1988 47.2589L12.8125 45.6899L15.8463 44.9409C17.9568 44.4187 19.2711 45.326 19.9236 48.0032Z" fill="#2D2A26"/>
<path d="M17.7423 37.1126L19.7256 36.1792L19.5066 38.0695L17.7258 38.8824L17.4243 41.4698L19.0873 41.6635L18.9012 43.2703L12.6758 42.5283L13.2482 37.6229C13.413 36.2052 14.4259 35.338 15.8109 35.4963C16.262 35.5258 16.6921 35.6982 17.0392 35.9887C17.3863 36.2791 17.6325 36.6727 17.7423 37.1126ZM16.0935 41.3114L16.4256 38.4571C16.4822 37.9845 16.5693 37.2283 15.6366 37.1173C14.7038 37.0062 14.6049 37.7576 14.5507 38.2373L14.2162 41.0917L16.0935 41.3114Z" fill="#2D2A26"/>
<path d="M20.8402 33.632L20.289 35.1513L14.4004 33.0011L14.9516 31.4818L20.8402 33.632Z" fill="#2D2A26"/>
<path d="M20.3737 22.2546L25.5391 25.8132L24.2978 27.6279L18.0064 28.488L21.8811 31.1581L20.9672 32.4907L15.8018 28.9322L17.0384 27.1246L23.3439 26.2621L19.4621 23.5873L20.3737 22.2546Z" fill="#2D2A26"/>
<path d="M24.7405 20.1988L25.4777 21.2385L29.5597 18.3203L30.2357 19.2655L26.1537 22.1837L26.891 23.221L30.973 20.3052L31.7149 21.3496L26.321 25.2058L22.6865 20.0996L28.0805 16.2433L28.8224 17.2901L24.7405 20.1988Z" fill="#2D2A26"/>
<path d="M36.5057 16.749C36.3856 16.0685 36.7695 15.681 37.7211 15.5109C38.6727 15.3407 39.1697 15.5723 39.2899 16.2528C39.41 16.9333 39.0166 17.3303 38.0745 17.5004C37.1323 17.6706 36.6282 17.439 36.5057 16.749Z" fill="#2D2A26"/>
</g>
<g clip-path="url(#clip1_5507_1365)">
<path d="M45.7028 54.0803H37.8688C36.7939 54.0803 35.8878 53.2804 35.7571 52.216L35.3471 48.8771L35.3495 45.1009L34.4197 41.3248L33.8584 36.7531H49.7132L47.8145 52.216C47.6839 53.2804 46.7778 54.0803 45.7028 54.0803Z" fill="#E3F2FF"/>
<path d="M47.8493 36.7531L45.9506 52.216C45.82 53.2804 44.9138 54.0803 43.8389 54.0803H45.703C46.778 54.0803 47.6841 53.2804 47.8148 52.216L49.7135 36.7531H47.8493Z" fill="#CFE9FF"/>
<path d="M35.7572 52.216C35.8879 53.2804 36.794 54.0803 37.869 54.0803H45.703C46.778 54.0803 47.684 53.2803 47.8148 52.216L48.6496 45.4167H40.7141L35.3545 48.8762L35.7572 52.216Z" fill="#FFBE30"/>
<path d="M46.7855 45.4167L45.9507 52.216C45.82 53.2804 44.9138 54.0803 43.8389 54.0803H45.703C46.778 54.0803 47.6841 53.2803 47.8148 52.216L48.6497 45.4167H46.7855Z" fill="#FFAF00"/>
<path d="M40.0967 48.8761H35.3552L34.4307 41.3235H40.0967C40.8018 41.3235 41.3733 41.8936 41.3733 42.5969V47.6028C41.3732 48.306 40.8017 48.8761 40.0967 48.8761Z" fill="white"/>
<path d="M49.8078 37.6021H33.764C33.2946 37.6021 32.9141 37.2215 32.9141 36.7521V33.8347C32.9141 33.3652 33.2946 32.9847 33.764 32.9847H49.8078C50.2773 32.9847 50.6578 33.3652 50.6578 33.8347V36.7521C50.6578 37.2215 50.2772 37.6021 49.8078 37.6021Z" fill="#FF4C30"/>
<path d="M50.927 30.9179C50.927 30.9179 48.2754 34.061 48.2754 36.4396C48.2754 37.9005 49.4626 39.0848 50.927 39.0848C52.3915 39.0848 53.5787 37.9005 53.5787 36.4396C53.5787 34.2387 50.927 30.9179 50.927 30.9179Z" fill="#FFBE30"/>
<path d="M50.9276 30.9179C50.9276 30.9179 50.4945 31.4313 49.9785 32.1999C50.7452 33.3679 51.715 35.1085 51.715 36.4396C51.715 37.5732 51 38.5398 49.9955 38.9162C50.2855 39.0249 50.5995 39.0848 50.9276 39.0848C52.392 39.0848 53.5792 37.9005 53.5792 36.4396C53.5792 34.2387 50.9276 30.9179 50.9276 30.9179Z" fill="#FFAF00"/>
<path d="M34.6318 36.6594C34.8248 36.6594 34.9813 36.5029 34.9813 36.3098V34.277C34.9813 34.0839 34.8248 33.9274 34.6318 33.9274C34.4387 33.9274 34.2822 34.0839 34.2822 34.277V36.3099C34.2822 36.5029 34.4387 36.6594 34.6318 36.6594Z" fill="black"/>
<path d="M36.4198 36.6594C36.6129 36.6594 36.7694 36.5029 36.7694 36.3099V34.277C36.7694 34.084 36.6129 33.9275 36.4198 33.9275C36.2268 33.9275 36.0703 34.084 36.0703 34.277V36.31C36.0703 36.5029 36.2268 36.6594 36.4198 36.6594Z" fill="black"/>
<path d="M38.2089 36.6594C38.4019 36.6594 38.5584 36.5029 38.5584 36.3099V34.277C38.5584 34.084 38.4019 33.9275 38.2089 33.9275C38.0159 33.9275 37.8594 34.084 37.8594 34.277V36.31C37.8594 36.5029 38.0158 36.6594 38.2089 36.6594Z" fill="black"/>
<path d="M39.997 36.6594C40.19 36.6594 40.3465 36.5029 40.3465 36.3098V34.277C40.3465 34.0839 40.19 33.9274 39.997 33.9274C39.804 33.9274 39.6475 34.0839 39.6475 34.277V36.3099C39.6475 36.5029 39.804 36.6594 39.997 36.6594Z" fill="black"/>
<path d="M41.7851 36.6594C41.9781 36.6594 42.1346 36.5029 42.1346 36.3099V34.277C42.1346 34.084 41.9781 33.9275 41.7851 33.9275C41.592 33.9275 41.4355 34.084 41.4355 34.277V36.31C41.4355 36.5029 41.592 36.6594 41.7851 36.6594Z" fill="black"/>
<path d="M43.5741 36.6594C43.7672 36.6594 43.9237 36.5029 43.9237 36.3099V34.277C43.9237 34.084 43.7672 33.9275 43.5741 33.9275C43.3811 33.9275 43.2246 34.084 43.2246 34.277V36.31C43.2246 36.5029 43.3811 36.6594 43.5741 36.6594Z" fill="black"/>
<path d="M45.3632 36.6594C45.5563 36.6594 45.7128 36.5029 45.7128 36.3098V34.277C45.7128 34.0839 45.5563 33.9274 45.3632 33.9274C45.1702 33.9274 45.0137 34.0839 45.0137 34.277V36.3099C45.0137 36.5029 45.1702 36.6594 45.3632 36.6594Z" fill="black"/>
<path d="M47.1513 36.6594C47.3443 36.6594 47.5008 36.5029 47.5008 36.3099V34.277C47.5008 34.084 47.3443 33.9275 47.1513 33.9275C46.9583 33.9275 46.8018 34.084 46.8018 34.277V36.31C46.8018 36.5029 46.9583 36.6594 47.1513 36.6594Z" fill="black"/>
<path d="M52.0526 31.8919C51.8241 31.4901 51.2315 31.8025 51.4343 32.218C52.0072 33.304 53.2288 35.7503 53.2288 36.4397C53.1038 39.4862 48.7629 39.4744 48.6246 36.4397C48.6246 34.6588 50.2585 32.35 50.9205 31.4877C51.0574 31.6733 51.2367 31.9237 51.4343 32.218C51.5418 32.3783 51.7589 32.4211 51.9193 32.3134C52.0795 32.2058 52.1222 31.9887 52.0147 31.8284C51.5651 31.1588 51.2145 30.7184 51.1998 30.6999C51.0642 30.5299 50.7996 30.5265 50.6595 30.6926C50.6046 30.7577 49.9412 31.5509 49.2817 32.6352H33.764C33.1025 32.6352 32.5645 33.1733 32.5645 33.8347V36.7521C32.5645 37.376 33.0433 37.89 33.6528 37.9463L35.4102 52.2587C35.5621 53.4965 36.6191 54.4299 37.8688 54.4299H38.9229C39.1159 54.4299 39.2724 54.2734 39.2724 54.0803C39.2724 53.8873 39.1159 53.7308 38.9229 53.7308H37.8688C36.9717 53.7308 36.213 53.0613 36.104 52.1734L35.7421 49.2257H40.0959C40.9925 49.2257 41.722 48.4977 41.722 47.6028V45.7662H48.2544L47.4677 52.1734C47.3587 53.0612 46.5999 53.7308 45.7029 53.7308H38.4927C38.2997 53.7308 38.1432 53.8873 38.1432 54.0803C38.1432 54.2734 38.2997 54.4299 38.4927 54.4299H45.7028C46.9525 54.4299 48.0095 53.4964 48.1615 52.2587L49.7648 39.2008C51.6853 40.0448 53.9621 38.5441 53.9278 36.4397C53.9279 35.6355 52.6791 33.0794 52.0526 31.8919ZM33.2635 36.7521V33.8347C33.2635 33.5588 33.488 33.3343 33.764 33.3343H48.8824C48.2399 34.582 47.6858 35.9341 48.038 37.2526H33.764C33.488 37.2526 33.2635 37.0281 33.2635 36.7521ZM41.0229 47.6029C41.0229 48.1123 40.6071 48.5267 40.0959 48.5267H35.6562L35.4143 46.5561H38.4668C38.6599 46.5561 38.8164 46.3996 38.8164 46.2066C38.8164 46.0136 38.6599 45.8571 38.4668 45.8571H35.3285L35.1389 44.3132H38.4668C38.6599 44.3132 38.8164 44.1567 38.8164 43.9636C38.8164 43.7706 38.6599 43.6141 38.4668 43.6141H35.053L34.8147 41.6732H40.0959C40.6071 41.6732 41.0229 42.0876 41.0229 42.597V47.6029ZM48.3402 45.0672H41.722V42.597C41.722 41.7021 40.9925 40.9741 40.0959 40.9741H34.7289L34.3578 37.9516H48.3371C48.5354 38.2884 48.7977 38.5834 49.1074 38.8196L48.3402 45.0672Z" fill="black"/>
<path d="M50.1854 36.4785C50.1714 36.0168 49.5005 36.0162 49.4863 36.4785C49.4863 37.25 50.1152 37.8777 50.8882 37.8777C51.35 37.8633 51.3502 37.193 50.8882 37.1786C50.5006 37.1786 50.1854 36.8645 50.1854 36.4785Z" fill="black"/>
</g>
<defs>
<clipPath id="clip0_5507_1365">
<rect width="59.6491" height="59.6491" fill="white" transform="translate(12.6758 12.6754)"/>
</clipPath>
<clipPath id="clip1_5507_1365">
<rect width="23.8596" height="23.8596" fill="white" transform="translate(31.3164 30.5702)"/>
</clipPath>
</defs>
</svg>

<svg width="85" height="85" fill="none" xmlns="http://www.w3.org/2000/svg"><rect x="4.491" y="4.491" width="76.017" height="76.017" rx="38.009" fill="#FCFCF0" stroke="#F68D2E" stroke-width="6"/><rect x="6.465" y="6.465" width="72.07" height="72.07" rx="36.035" fill="#FCFCF0" stroke="#2D2A26"/><g clip-path="url(#clip0_5507_1365)" fill="#2D2A26"><path d="M48.542 19.863c-2.664-.709-3.533-2.034-2.973-4.151l.808-3.027 1.557.418-.808 3.027c-.235.85-.252 1.89 1.765 2.424 2.016.534 2.508-.378 2.732-1.219l.808-3.027 1.554.418-.796 3.01c-.57 2.127-1.992 2.836-4.647 2.127zm10.567 3.347l-.149 2.192-1.53-1.11.152-1.955-2.12-1.519-.975 1.366-1.31-.945 3.654-5.109 4.004 2.878c1.157.834 1.413 2.14.608 3.28-.598.834-1.458 1.143-2.334.921zm-2.857-3.493l2.327 1.675c.393.281 1.005.72 1.552-.045.547-.765-.056-1.212-.45-1.495l-2.327-1.676-1.102 1.54zm4.388 7.885l-1.06-1.217 4.711-4.138 1.06 1.217-4.711 4.138zm10.165 5.082l-5.603 2.824-.985-1.966 2.28-5.945-4.2 2.127-.723-1.444 5.6-2.835.979 1.958-2.282 5.957 4.204-2.126.73 1.45zm-.315 4.835l-1.263.144.565 4.995-1.156.13-.566-4.995-1.262.144.565 4.995-1.272.147-.746-6.602 6.223-.709.749 6.6-1.272.146-.566-4.995zM67.814 49.52c.653.222.806.747.497 1.666-.308.92-.751 1.243-1.413 1.02-.662-.221-.813-.76-.504-1.67.308-.91.76-1.24 1.42-1.016zm-9.01 9.553c1.97-1.937 3.545-2.015 5.074-.45l2.186 2.237-1.15 1.13-2.186-2.239c-.614-.626-1.488-1.18-2.977.289-1.488 1.47-.954 2.363-.346 2.98l2.186 2.237-1.15 1.132-2.186-2.238c-1.533-1.557-1.413-3.15.55-5.078zm-8.241 7.429l-1.81-1.238 1.734-.77 1.602 1.125 2.377-1.052-.678-1.536 1.474-.654 2.532 5.749-4.501 1.996c-1.303.58-2.56.144-3.126-1.136a2.15 2.15 0 01.396-2.484zm4.45-.694l-2.622 1.16c-.44.196-1.129.5-.75 1.363.38.863 1.072.567 1.513.371l2.626-1.162-.768-1.732zm-9-.22l1.583-.293 1.142 6.181-1.583.293-1.142-6.181zm-9.526 6.198l.42-6.271 2.188.146 3.945 4.988.313-4.709 1.61.109-.42 6.27-2.188-.141L38.4 67.18l-.313 4.712-1.6-.106zm-3.995-2.729l.516-1.165-4.577-2.049.471-1.066 4.577 2.049.518-1.165-4.576-2.049.52-1.181 6.054 2.717-2.554 5.74-6.048-2.708.52-1.181 4.58 2.058zm-8.936-8.415c-.52.452-1.05.315-1.682-.42-.63-.735-.685-1.279-.162-1.73.523-.451 1.064-.316 1.689.414.624.73.685 1.278.155 1.736zm-3.632-12.639c.66 2.684-.076 4.086-2.196 4.61l-3.034.75-.383-1.57 3.031-.749c.853-.21 1.769-.685 1.27-2.717-.5-2.032-1.538-2.025-2.382-1.817l-3.031.749-.386-1.57 3.033-.748c2.11-.522 3.425.385 4.078 3.062zm-2.182-10.89l1.984-.934-.22 1.89-1.78.813-.302 2.588 1.663.194-.186 1.606-6.225-.742.572-4.905c.165-1.418 1.178-2.285 2.563-2.127a2.13 2.13 0 011.931 1.617zm-1.649 4.198l.333-2.854c.056-.473.143-1.229-.79-1.34-.932-.11-1.031.64-1.085 1.12l-.335 2.855 1.877.22zm4.747-7.679l-.551 1.52-5.889-2.15.552-1.52 5.888 2.15zm-.466-11.377l5.165 3.558-1.241 1.815-6.292.86 3.875 2.67-.914 1.333-5.165-3.559 1.236-1.807 6.306-.863-3.882-2.675.912-1.332zm4.366-2.056l.738 1.04 4.082-2.919.676.945-4.082 2.919.737 1.037 4.082-2.916.742 1.045-5.394 3.856-3.635-5.106 5.395-3.857.741 1.047-4.081 2.909zm11.766-3.45c-.12-.68.264-1.068 1.215-1.238.952-.17 1.449.061 1.569.742.12.68-.273 1.077-1.215 1.247-.943.17-1.447-.061-1.57-.751z"/></g><g clip-path="url(#clip1_5507_1365)"><path d="M45.703 54.08h-7.834c-1.075 0-1.981-.8-2.112-1.864l-.41-3.339.002-3.776-.93-3.776-.56-4.572h15.854l-1.898 15.463a2.126 2.126 0 01-2.112 1.864z" fill="#E3F2FF"/><path d="M47.85 36.753l-1.9 15.463a2.126 2.126 0 01-2.111 1.864h1.864c1.075 0 1.981-.8 2.112-1.864l1.899-15.463h-1.865z" fill="#CFE9FF"/><path d="M35.757 52.216a2.126 2.126 0 002.112 1.864h7.834c1.075 0 1.981-.8 2.112-1.864l.835-6.8h-7.936l-5.36 3.46.403 3.34z" fill="#FFBE30"/><path d="M46.785 45.417l-.834 6.799a2.126 2.126 0 01-2.112 1.864h1.864c1.075 0 1.981-.8 2.112-1.864l.835-6.8h-1.864z" fill="#FFAF00"/><path d="M40.097 48.876h-4.742l-.924-7.552h5.666c.705 0 1.276.57 1.276 1.273v5.006c0 .703-.571 1.273-1.276 1.273z" fill="#fff"/><path d="M49.808 37.602H33.764a.85.85 0 01-.85-.85v-2.917c0-.47.38-.85.85-.85h16.044c.47 0 .85.38.85.85v2.917c0 .47-.38.85-.85.85z" fill="#FF4C30"/><path d="M50.927 30.918s-2.652 3.143-2.652 5.522a2.648 2.648 0 002.652 2.645 2.648 2.648 0 002.652-2.645c0-2.201-2.652-5.522-2.652-5.522z" fill="#FFBE30"/><path d="M50.928 30.918s-.433.513-.95 1.282c.767 1.168 1.737 2.908 1.737 4.24 0 1.133-.715 2.1-1.72 2.476a2.648 2.648 0 003.584-2.477c0-2.2-2.651-5.521-2.651-5.521z" fill="#FFAF00"/><path d="M34.632 36.66a.35.35 0 00.35-.35v-2.033a.35.35 0 10-.7 0v2.033c0 .193.157.35.35.35zm1.788 0a.35.35 0 00.35-.35v-2.033a.35.35 0 00-.7 0v2.033c0 .193.157.35.35.35zm1.789 0a.35.35 0 00.35-.35v-2.033a.35.35 0 00-.7 0v2.033c0 .193.157.35.35.35zm1.788 0a.35.35 0 00.35-.35v-2.033a.35.35 0 10-.7 0v2.033c0 .193.157.35.35.35zm1.788 0a.35.35 0 00.35-.35v-2.033a.35.35 0 00-.7 0v2.033c0 .193.157.35.35.35zm1.789 0a.35.35 0 00.35-.35v-2.033a.35.35 0 00-.7 0v2.033c0 .193.157.35.35.35zm1.789 0a.35.35 0 00.35-.35v-2.033a.35.35 0 10-.7 0v2.033c0 .193.157.35.35.35zm1.788 0a.35.35 0 00.35-.35v-2.033a.35.35 0 00-.7 0v2.033c0 .193.157.35.35.35z" fill="#000"/><path d="M52.053 31.892c-.229-.402-.822-.09-.619.326.573 1.086 1.795 3.532 1.795 4.222-.125 3.046-4.466 3.034-4.604 0 0-1.781 1.633-4.09 2.295-4.952.137.185.317.436.514.73a.35.35 0 10.58-.39c-.449-.67-.8-1.11-.814-1.128a.353.353 0 00-.54-.007 16.91 16.91 0 00-1.378 1.942H33.764a1.2 1.2 0 00-1.2 1.2v2.917c0 .624.48 1.138 1.089 1.194L35.41 52.26a2.478 2.478 0 002.459 2.17h1.054a.35.35 0 000-.698h-1.054c-.897 0-1.656-.67-1.765-1.558l-.362-2.947h4.354c.897 0 1.626-.728 1.626-1.623v-1.837h6.532l-.786 6.407a1.778 1.778 0 01-1.765 1.558h-7.21a.35.35 0 000 .699h7.21c1.25 0 2.306-.934 2.458-2.171l1.604-13.06c1.92.844 4.197-.657 4.163-2.761 0-.804-1.249-3.36-1.875-4.548zm-18.79 4.86v-2.917c0-.276.225-.5.501-.5h15.118c-.642 1.247-1.196 2.6-.844 3.918H33.764a.501.501 0 01-.5-.5zm7.76 10.85c0 .51-.416.925-.927.925h-4.44l-.242-1.97h3.053a.35.35 0 100-.7h-3.139l-.19-1.544h3.329a.35.35 0 100-.699h-3.414l-.238-1.94h5.28c.512 0 .928.414.928.923v5.006zm7.317-2.535h-6.618v-2.47c0-.895-.73-1.623-1.626-1.623h-5.367l-.371-3.022h13.98c.197.336.46.631.77.868l-.768 6.247z" fill="#000"/><path d="M50.185 36.478c-.014-.461-.684-.462-.699 0 0 .772.63 1.4 1.402 1.4.462-.015.462-.685 0-.7a.702.702 0 01-.703-.7z" fill="#000"/></g><defs><clipPath id="clip0_5507_1365"><path fill="#fff" transform="translate(12.676 12.675)" d="M0 0h59.649v59.649H0z"/></clipPath><clipPath id="clip1_5507_1365"><path fill="#fff" transform="translate(31.316 30.57)" d="M0 0h23.86v23.86H0z"/></clipPath></defs></svg>
